X: 022073
T: Banks' Brae
C: Joe Liddy
Z: BB
S: "The Leitrim Fiddler" (Dublin 1981)
L: 1/8
M: 6/8
R: jig
Q: 1/4 = 170
K: Ador
e/d/ | cAB c2d | cAG AGE | GEG AGA | cde ged |
cAB cde | dcA GEG | AGA cde | dBG A2 :|
d | eaa aba | age cde | age ged | cBc BAG |
EAB cde | dcA EFG | AGA cde | dBG A2d |
eaa aba | ged efg | age cde | dcA EFG |
AGA cde | geg age | AGA cde | dBG A2 ||
